X:5
%%vocalfont Baskerville10Pro 12
%%pagewidth 9in
T: Song on the Victory of Agincourt
M: 6/8
L: 1/8
U: R = "^ritard."
K: Bb
V:1 clef=treble
V:2 clef=bass
%%score 1 2
V:1
"^f"[DGBd]|[D^FAd]2 [Gc] [DGd]2 [EGc] | [DGc] [DGB]2 [D^FA]2 [DGd]|([EGd]c)[DA] ([B,DG]A)(G/D/)|[A,D=F] [G,^CE]2 [F,D]2 [DFA]| [C=EGc]2 [CFc] ([DFd]c)[DGB]|
w:Our king went forth to Normandy,** With grace*and might*of*chi-val-ry, The God for him* wrought
V:2
[G,,G,]| [D,,D,]2 [E,,E,] [B,,,B,,]2 [C,,C,]| [G,,,G,,][G,,,G,,]2[D,,D,]2[B,,,B,,]|[C,,C,]2[^F,,,^F,,][G,,,G,,]2[B,,,B,,]| [A,,,A,,][A,,,A,,]2[D,,D,]2[D,F,]|[C,G,]2[A,,F,] [B,,F,]2[G,,D,G,]|
V:1
[CFA] [B,=EG]2"^pp"[A,F]2 [DF]| [^C=EA]2 [DFA] [B,DG]2 "^ritard."[B,DF]|[A,DF] [G,^C=E]2 !fermata![F,^A,D]2 "^ff"([D^/F/A/]B/|[_EGc]/d/c)[CG] ([DGB][C^FA]/G/)A| [B,DG]3-[B,DG]2||
w:marv'lously,**Where-fore England* may call and cry, ``De**** o gra** ti as!''*
V:2
[C,F,A,] [C,G,]2[D,F,]2B,,|A,,2F,,G,,2G,,|A,,A,,2!invertedfermata![D,,A,,D,]2[D,,D,]|[C,,C,]2[E,,E,] [D,,D,][D,,D,]2|[G,,G,]2[D,,D,][G,,,G,,]2||

